src/actions/24/download-later.svg

<svg xmlns="http://www.w3.org/2000/svg" viewBox="0 0 24 24">
  <defs id="defs3051">
    <style type="text/css" id="current-color-scheme">
      .ColorScheme-Text {
        color:#363636;
      }
      </style>
  </defs>
 <path style="fill:currentColor;fill-opacity:1;stroke:none" 
     d="M 12 4 C 7.5680018 4 4 7.568 4 12 C 4 16.092537 7.0443284 19.441581 11 19.931641 L 11 18.921875 C 7.6006429 18.438059 5 15.537216 5 12 C 5 11.757625 5.0113434 11.519094 5.0351562 11.283203 C 5.3923512 7.7448367 8.3643762 5 12 5 C 15.877999 5 19 8.122 19 12 C 19 12.340784 18.968495 12.672498 18.921875 13 L 19.931641 13 C 19.972295 12.67189 20 12.339463 20 12 C 20 7.568 16.431998 4 12 4 z M 11 6 L 11 13 L 17 13 L 17 12 L 12 12 L 12 6 L 11 6 z M 17 14 L 17 18.292969 L 14.707031 16 L 14 16.707031 L 17.292969 20 L 17.5 20.207031 L 17.707031 20 L 21 16.707031 L 20.292969 16 L 18 18.292969 L 18 14 L 17 14 z "
     class="ColorScheme-Text"
     />
</svg>

<svg xmlns="http://www.w3.org/2000/svg" viewBox="0 0 24 24">
    <path d="M12 4c-4.432 0-8 3.568-8 8a7.976 7.976 0 0 0 7 7.932v-1.01C7.6 18.438 5 15.537 5 12a6.985 6.985 0 0 1 7-7c3.878 0 7 3.122 7 7 0 .34-.032.672-.078 1h1.01c.04-.328.068-.66.068-1 0-4.432-3.568-8-8-8zm-1 2v7h6v-1h-5V6h-1zm6 8v4.293L14.707 16l-.707.707L17.293 20l.207.207.207-.207L21 16.707 20.293 16 18 18.293V14h-1z" style="fill:currentColor;fill-opacity:1;stroke:none;color:#050505;opacity:.7"/>
</svg>
